contributed-vectors/divoom.svg

<?xml version="1.0" encoding="UTF-8" standalone="no"?>
<svg
   xmlns:dc="http://purl.org/dc/elements/1.1/"
   xmlns:cc="http://creativecommons.org/ns#"
   xmlns:rdf="http://www.w3.org/1999/02/22-rdf-syntax-ns#"
   xmlns:svg="http://www.w3.org/2000/svg"
   xmlns="http://www.w3.org/2000/svg"
   xmlns:sodipodi="http://sodipodi.sourceforge.net/DTD/sodipodi-0.dtd"
   xmlns:inkscape="http://www.inkscape.org/namespaces/inkscape"
   viewBox="0 0 192 192"
   version="1.1"
   id="svg16"
   sodipodi:docname="divooom.svg"
   inkscape:version="0.92.4 (5da689c313, 2019-01-14)">
  <metadata
     id="metadata20">
    <rdf:RDF>
      <cc:Work
         rdf:about="">
        <dc:format>image/svg+xml</dc:format>
        <dc:type
           rdf:resource="http://purl.org/dc/dcmitype/StillImage" />
        <dc:title></dc:title>
      </cc:Work>
    </rdf:RDF>
  </metadata>
  <sodipodi:namedview
     pagecolor="#ffffff"
     bordercolor="#666666"
     borderopacity="1"
     objecttolerance="10"
     gridtolerance="10"
     guidetolerance="10"
     inkscape:pageopacity="0"
     inkscape:pageshadow="2"
     inkscape:window-width="1920"
     inkscape:window-height="1017"
     id="namedview18"
     showgrid="false"
     inkscape:zoom="3.4766083"
     inkscape:cx="156.96124"
     inkscape:cy="109.9447"
     inkscape:window-x="-8"
     inkscape:window-y="-8"
     inkscape:window-maximized="1"
     inkscape:current-layer="svg16"
     inkscape:snap-global="false">
    <inkscape:grid
       type="xygrid"
       id="grid827"
       spacingx="4"
       spacingy="4" />
  </sodipodi:namedview>
  <defs
     id="defs4">
    <style
       id="style2">.a{fill:none;stroke:#b1b5bd;stroke-linecap:round;stroke-linejoin:round;isolation:isolate;opacity:0.63;}</style>
  </defs>
  <path
     style="opacity:1;vector-effect:none;fill:#56595b;fill-opacity:1;fill-rule:evenodd;stroke:none;stroke-width:24;stroke-linecap:round;stroke-linejoin:round;stroke-miterlimit:4;stroke-dasharray:none;paint-order:stroke fill markers"
     d="M 32,32 V 44 H 20 V 56 H 8 v 48 h 12 v 12 h 12 v 12 h 12 v 12 h 12 v 12 h 12 v 12 h 12 v 12 h 12 v -12 h 12 v -12 h 12 v -12 h 12 v -12 h 12 v -12 h 12 v -12 h 12 V 56 H 152 V 44 H 140 V 32 H 104 V 44 H 92 V 56 H 80 V 44 H 68 V 32 Z"
     id="rect829"
     inkscape:connector-curvature="0"
     sodipodi:nodetypes="ccccccccccccccccccccccccccccccccccccccccccccc" />
  <path
     style="opacity:1;vector-effect:none;fill:#ff837d;fill-opacity:1;fill-rule:evenodd;stroke:none;stroke-width:24;stroke-linecap:round;stroke-linejoin:round;stroke-miterlimit:4;stroke-dasharray:none;paint-order:stroke fill markers"
     d="M 32,44 V 56 H 20 v 48 h 12 v 12 h 12 v 12 h 12 v 12 h 12 v 12 h 12 v 12 h 12 v -12 h 12 v -12 h 12 v -12 h 12 v -12 h 12 v -12 h 12 V 56 H 140 V 44 H 104 V 56 H 92 V 68 H 80 V 56 H 68 V 44 Z"
     id="rect848"
     inkscape:connector-curvature="0" />
  <rect
     style="opacity:1;vector-effect:none;fill:#ffd6d4;fill-opacity:1;fill-rule:evenodd;stroke:none;stroke-width:24;stroke-linecap:round;stroke-linejoin:round;stroke-miterlimit:4;stroke-dasharray:none;paint-order:stroke fill markers"
     id="rect867"
     width="12"
     height="12"
     x="32"
     y="44" />
  <rect
     style="opacity:1;vector-effect:none;fill:#ffd6d4;fill-opacity:1;fill-rule:evenodd;stroke:none;stroke-width:24;stroke-linecap:round;stroke-linejoin:round;stroke-miterlimit:4;stroke-dasharray:none;paint-order:stroke fill markers"
     id="rect869"
     width="12"
     height="48"
     x="20"
     y="56" />
  <rect
     style="opacity:1;vector-effect:none;fill:#ffd6d4;fill-opacity:1;fill-rule:evenodd;stroke:none;stroke-width:24;stroke-linecap:round;stroke-linejoin:round;stroke-miterlimit:4;stroke-dasharray:none;paint-order:stroke fill markers"
     id="rect871"
     width="12"
     height="12"
     x="32"
     y="104" />
  <rect
     style="opacity:1;vector-effect:none;fill:#ffd6d4;fill-opacity:1;fill-rule:evenodd;stroke:none;stroke-width:24;stroke-linecap:round;stroke-linejoin:round;stroke-miterlimit:4;stroke-dasharray:none;paint-order:stroke fill markers"
     id="rect873"
     width="12"
     height="12"
     x="44"
     y="116" />
  <rect
     style="opacity:1;vector-effect:none;fill:#ffd6d4;fill-opacity:1;fill-rule:evenodd;stroke:none;stroke-width:24;stroke-linecap:round;stroke-linejoin:round;stroke-miterlimit:4;stroke-dasharray:none;paint-order:stroke fill markers"
     id="rect875"
     width="12"
     height="12"
     x="56"
     y="128" />
  <rect
     style="opacity:1;vector-effect:none;fill:#ffd6d4;fill-opacity:1;fill-rule:evenodd;stroke:none;stroke-width:24;stroke-linecap:round;stroke-linejoin:round;stroke-miterlimit:4;stroke-dasharray:none;paint-order:stroke fill markers"
     id="rect877"
     width="12"
     height="12"
     x="68"
     y="140" />
  <rect
     style="opacity:1;vector-effect:none;fill:#ffd6d4;fill-opacity:1;fill-rule:evenodd;stroke:none;stroke-width:24;stroke-linecap:round;stroke-linejoin:round;stroke-miterlimit:4;stroke-dasharray:none;paint-order:stroke fill markers"
     id="rect879"
     width="12"
     height="12"
     x="80"
     y="152" />
  <rect
     style="opacity:1;vector-effect:none;fill:#ba6561;fill-opacity:1;fill-rule:evenodd;stroke:none;stroke-width:24;stroke-linecap:round;stroke-linejoin:round;stroke-miterlimit:4;stroke-dasharray:none;paint-order:stroke fill markers"
     id="rect881"
     width="12"
     height="12"
     x="128"
     y="44" />
  <rect
     style="opacity:1;vector-effect:none;fill:#ba6561;fill-opacity:1;fill-rule:evenodd;stroke:none;stroke-width:24.05897713;stroke-linecap:round;stroke-linejoin:round;stroke-miterlimit:4;stroke-dasharray:none;paint-order:stroke fill markers"
     id="rect883"
     width="12.029489"
     height="48.117954"
     x="184.54611"
     y="-37.997608"
     transform="rotate(37.789231)" />
  <rect
     style="opacity:1;vector-effect:none;fill:#ba6561;fill-opacity:1;fill-rule:evenodd;stroke:none;stroke-width:24.05897713;stroke-linecap:round;stroke-linejoin:round;stroke-miterlimit:4;stroke-dasharray:none;paint-order:stroke fill markers"
     id="rect885"
     width="12.029489"
     height="12.029489"
     x="172.51663"
     y="10.120367"
     transform="rotate(37.789231)" />
  <rect
     style="opacity:1;vector-effect:none;fill:#ba6561;fill-opacity:1;fill-rule:evenodd;stroke:none;stroke-width:24.05897713;stroke-linecap:round;stroke-linejoin:round;stroke-miterlimit:4;stroke-dasharray:none;paint-order:stroke fill markers"
     id="rect887"
     width="12.029489"
     height="12.029489"
     x="160.48714"
     y="22.149855"
     transform="rotate(37.789231)" />
  <rect
     style="opacity:1;vector-effect:none;fill:#ba6561;fill-opacity:1;fill-rule:evenodd;stroke:none;stroke-width:24;stroke-linecap:round;stroke-linejoin:round;stroke-miterlimit:4;stroke-dasharray:none;paint-order:stroke fill markers"
     id="rect889"
     width="12"
     height="12"
     x="104"
     y="128" />
  <rect
     style="opacity:1;vector-effect:none;fill:#ba6561;fill-opacity:1;fill-rule:evenodd;stroke:none;stroke-width:24;stroke-linecap:round;stroke-linejoin:round;stroke-miterlimit:4;stroke-dasharray:none;paint-order:stroke fill markers"
     id="rect891"
     width="12"
     height="12"
     x="92"
     y="140" />
  <path
     style="opacity:1;vector-effect:none;fill:#ffffff;fill-opacity:1;fill-rule:evenodd;stroke:none;stroke-width:24;stroke-linecap:round;stroke-linejoin:round;stroke-miterlimit:4;stroke-dasharray:none;paint-order:stroke fill markers"
     d="M 32,56 V 68 80 H 44 V 68 H 56 V 56 H 44 Z"
     id="rect893"
     inkscape:connector-curvature="0" />
  <rect
     style="opacity:1;vector-effect:none;fill:#ff837d;fill-opacity:1;fill-rule:evenodd;stroke-width:1.00245738;paint-order:stroke fill markers"
     id="rect924"
     width="40.098293"
     height="28.068806"
     x="160.48714"
     y="-46.017265"
     ry="8.019659"
     transform="rotate(37.789231)" />
  <path
     style="fill:#ba6561"
     d="m 147.9661,71.237288 c 0,0 4.45186,-3.128643 8.28814,-0.559322 3.98308,2.667643 2.74576,8.745763 2.74576,8.745763 0,0 3.80511,-3.579935 7.98306,-0.61017 4.17794,2.969766 1.77965,7.830509 1.77965,7.830509 0,0 3.91579,-3.799797 8.89831,-0.152542 4.98251,3.647254 1.47457,9.762711 1.47457,9.762711 l -10.62712,-9.40678 c 0,0 1.72717,-3.865391 -2.28813,-6.661017 -4.01531,-2.795625 -7.52542,-0.508474 -7.52542,-0.508474 0,0 0.47872,-5.247328 -3.05085,-7.728814 -3.55233,-2.497487 -7.67797,-0.711864 -7.67797,-0.711864 z"
     id="path1101"
     inkscape:connector-curvature="0"
     sodipodi:nodetypes="csczczcczcsc" />
  <path
     style="fill:#ffd6d4"
     d="M 150.60742 70.585938 C 149.1099 70.656719 148.11094 71.027981 147.95898 71.085938 L 142.74023 77.818359 C 140.01781 81.329444 140.65298 86.347894 144.16406 89.070312 L 148.81055 92.671875 L 159.11328 79.427734 L 159.0625 79.390625 C 159.0625 79.390625 158.98767 74.620854 156.1875 72.34375 C 154.3086 70.815837 152.22306 70.509573 150.60742 70.585938 z "
     id="path951" />
  <rect
     style="opacity:1;vector-effect:none;fill:#ffffff;fill-opacity:1;fill-rule:evenodd;stroke-width:1.00245738;paint-order:stroke fill markers"
     id="rect922"
     width="40.098293"
     height="12.029489"
     x="160.48714"
     y="-29.97793"
     transform="rotate(37.789231)" />
  <path
     style="opacity:1;vector-effect:none;fill:#ba6561;fill-opacity:1;fill-rule:evenodd;stroke-width:1.00245738;paint-order:stroke fill markers"
     d="M 170.25 86.375 C 169.40332 86.405565 168.8418 86.509766 168.8418 86.509766 L 168.76172 86.451172 L 158.23633 99.982422 L 163.17773 103.8125 C 166.68882 106.53492 171.70727 105.89976 174.42969 102.38867 L 179.1875 96.251953 L 179.125 96.289062 C 179.125 96.289062 180.53962 91.026454 175.60156 87.660156 C 173.86691 86.477634 171.66113 86.324059 170.25 86.375 z "
     id="rect924-1" />
  <rect
     style="opacity:1;vector-effect:none;fill:#f9de81;fill-opacity:1;fill-rule:evenodd;stroke:none;stroke-width:7.60811663;stroke-linecap:round;stroke-linejoin:round;stroke-miterlimit:4;stroke-dasharray:none;paint-order:stroke fill markers"
     id="rect904"
     width="40.098293"
     height="56.137611"
     x="160.48714"
     y="-21.958271"
     transform="rotate(37.789231)" />
  <path
     style="opacity:1;vector-effect:none;fill:#d8d8d8;fill-opacity:1;fill-rule:evenodd;stroke-width:1.00245738;paint-order:stroke fill markers"
     d="M 165.62109 90.486328 L 158.23633 99.982422 L 169.51562 108.72656 L 176.88672 99.220703 L 165.62109 90.486328 z "
     id="rect922-6" />
  <path
     style="fill:#c39a54;"
     d="M 160.69922 96.816406 L 126.23242 141.12891 L 137.57227 149.92188 L 171.97266 105.55664 L 160.69922 96.816406 z "
     id="path951-2" />
  <path
     style="opacity:1;vector-effect:none;fill:#fdf5d9;fill-opacity:1;fill-rule:evenodd;stroke:none;stroke-width:7.60811663;stroke-linecap:round;stroke-linejoin:round;stroke-miterlimit:4;stroke-dasharray:none;paint-order:stroke fill markers"
     d="M 140.2832 80.986328 L 105.88477 125.35156 L 116.80664 133.82031 L 151.27344 89.505859 L 140.2832 80.986328 z "
     id="rect904-4" />
  <path
     style="color:#000000;font-style:normal;font-variant:normal;font-weight:normal;font-stretch:normal;font-size:medium;line-height:normal;font-family:sans-serif;font-variant-ligatures:normal;font-variant-position:normal;font-variant-caps:normal;font-variant-numeric:normal;font-variant-alternates:normal;font-feature-settings:normal;text-indent:0;text-align:start;text-decoration:none;text-decoration-line:none;text-decoration-style:solid;text-decoration-color:#000000;letter-spacing:normal;word-spacing:normal;text-transform:none;writing-mode:lr-tb;direction:ltr;text-orientation:mixed;dominant-baseline:auto;baseline-shift:baseline;text-anchor:start;white-space:normal;shape-padding:0;clip-rule:nonzero;display:inline;overflow:visible;visibility:visible;opacity:1;isolation:auto;mix-blend-mode:normal;color-interpolation:sRGB;color-interpolation-filters:linearRGB;solid-color:#000000;solid-opacity:1;vector-effect:none;fill:#fcecdc;fill-opacity:1;fill-rule:nonzero;stroke:none;stroke-width:8.01965904;stroke-linecap:round;stroke-linejoin:round;stroke-miterlimit:4;stroke-dasharray:none;stroke-dashoffset:0;stroke-opacity:1;color-rendering:auto;image-rendering:auto;shape-rendering:auto;text-rendering:auto;enable-background:accumulate"
     d="M 108.1543 124.75195 C 106.19056 124.83155 104.57385 126.32254 104.33594 128.27344 L 101.4043 152.32227 L 101.40625 152.32227 L 104 160 L 112.56836 160.97656 L 112.56836 160.97852 L 135.12891 152.14844 C 138.02672 151.01357 138.5837 147.15396 136.125 145.24609 L 110.77344 125.58984 C 110.02643 125.01058 109.09881 124.71383 108.1543 124.75195 z "
     id="path912" />
  <rect
     style="opacity:1;vector-effect:none;fill:#fcecdc;fill-opacity:1;fill-rule:evenodd;stroke-width:1.00245738;paint-order:stroke fill markers"
     id="rect914"
     width="16.039318"
     height="16.039318"
     x="160.48714"
     y="26.159685"
     ry="8.019659"
     transform="rotate(37.789231)" />
  <rect
     style="opacity:1;vector-effect:none;fill:#fcecdc;fill-opacity:1;fill-rule:evenodd;stroke-width:1.00245738;paint-order:stroke fill markers"
     id="rect916"
     width="16.039318"
     height="16.039318"
     x="184.54611"
     y="26.159685"
     ry="8.019659"
     transform="rotate(37.789231)" />
  <rect
     style="opacity:1;vector-effect:none;fill:#fcecdc;fill-opacity:1;fill-rule:evenodd;stroke-width:1.00245738;paint-order:stroke fill markers"
     id="rect918"
     width="16.039318"
     height="16.039318"
     x="172.51663"
     y="26.159685"
     ry="8.019659"
     transform="rotate(37.789231)" />
  <path
     style="opacity:1;vector-effect:none;fill:#4a4a4a;fill-opacity:1;fill-rule:evenodd;stroke-width:1.00245738;paint-order:stroke fill markers"
     d="m 101.40529,152.32165 -0.85584,7.01182 c -0.36525,3.01096 2.61516,5.32191 5.44027,4.21826 l 6.57772,-2.57519 z"
     id="rect926"
     inkscape:connector-curvature="0" />
</svg>

<svg xmlns="http://www.w3.org/2000/svg" id="svg16" version="1.1" viewBox="0 0 192 192"><defs id="defs4"><style id="style2">.a{fill:none;stroke:#b1b5bd;stroke-linecap:round;stroke-linejoin:round;isolation:isolate;opacity:.63}</style></defs><path id="rect829" d="M32 32v12H20v12H8v48h12v12h12v12h12v12h12v12h12v12h12v12h12v-12h12v-12h12v-12h12v-12h12v-12h12v-12h12V56h-12V44h-12V32h-36v12H92v12H80V44H68V32Z" style="opacity:1;vector-effect:none;fill:#56595b;fill-opacity:1;fill-rule:evenodd;stroke:none;stroke-width:24;stroke-linecap:round;stroke-linejoin:round;stroke-miterlimit:4;stroke-dasharray:none;paint-order:stroke fill markers"/><path id="rect848" d="M32 44v12H20v48h12v12h12v12h12v12h12v12h12v12h12v-12h12v-12h12v-12h12v-12h12v-12h12V56h-12V44h-36v12H92v12H80V56H68V44Z" style="opacity:1;vector-effect:none;fill:#ff837d;fill-opacity:1;fill-rule:evenodd;stroke:none;stroke-width:24;stroke-linecap:round;stroke-linejoin:round;stroke-miterlimit:4;stroke-dasharray:none;paint-order:stroke fill markers"/><path id="rect867" d="M32 44h12v12H32z" style="opacity:1;vector-effect:none;fill:#ffd6d4;fill-opacity:1;fill-rule:evenodd;stroke:none;stroke-width:24;stroke-linecap:round;stroke-linejoin:round;stroke-miterlimit:4;stroke-dasharray:none;paint-order:stroke fill markers"/><path id="rect869" d="M20 56h12v48H20z" style="opacity:1;vector-effect:none;fill:#ffd6d4;fill-opacity:1;fill-rule:evenodd;stroke:none;stroke-width:24;stroke-linecap:round;stroke-linejoin:round;stroke-miterlimit:4;stroke-dasharray:none;paint-order:stroke fill markers"/><path id="rect871" d="M32 104h12v12H32z" style="opacity:1;vector-effect:none;fill:#ffd6d4;fill-opacity:1;fill-rule:evenodd;stroke:none;stroke-width:24;stroke-linecap:round;stroke-linejoin:round;stroke-miterlimit:4;stroke-dasharray:none;paint-order:stroke fill markers"/><path id="rect873" d="M44 116h12v12H44z" style="opacity:1;vector-effect:none;fill:#ffd6d4;fill-opacity:1;fill-rule:evenodd;stroke:none;stroke-width:24;stroke-linecap:round;stroke-linejoin:round;stroke-miterlimit:4;stroke-dasharray:none;paint-order:stroke fill markers"/><path id="rect875" d="M56 128h12v12H56z" style="opacity:1;vector-effect:none;fill:#ffd6d4;fill-opacity:1;fill-rule:evenodd;stroke:none;stroke-width:24;stroke-linecap:round;stroke-linejoin:round;stroke-miterlimit:4;stroke-dasharray:none;paint-order:stroke fill markers"/><path id="rect877" d="M68 140h12v12H68z" style="opacity:1;vector-effect:none;fill:#ffd6d4;fill-opacity:1;fill-rule:evenodd;stroke:none;stroke-width:24;stroke-linecap:round;stroke-linejoin:round;stroke-miterlimit:4;stroke-dasharray:none;paint-order:stroke fill markers"/><path id="rect879" d="M80 152h12v12H80z" style="opacity:1;vector-effect:none;fill:#ffd6d4;fill-opacity:1;fill-rule:evenodd;stroke:none;stroke-width:24;stroke-linecap:round;stroke-linejoin:round;stroke-miterlimit:4;stroke-dasharray:none;paint-order:stroke fill markers"/><path id="rect881" d="M128 44h12v12h-12z" style="opacity:1;vector-effect:none;fill:#ba6561;fill-opacity:1;fill-rule:evenodd;stroke:none;stroke-width:24;stroke-linecap:round;stroke-linejoin:round;stroke-miterlimit:4;stroke-dasharray:none;paint-order:stroke fill markers"/><path id="rect883" d="M184.546-37.998h12.029V10.12h-12.029z" style="opacity:1;vector-effect:none;fill:#ba6561;fill-opacity:1;fill-rule:evenodd;stroke:none;stroke-width:24.05897713;stroke-linecap:round;stroke-linejoin:round;stroke-miterlimit:4;stroke-dasharray:none;paint-order:stroke fill markers" transform="rotate(37.79)"/><path id="rect885" d="M172.517 10.12h12.029v12.029h-12.029z" style="opacity:1;vector-effect:none;fill:#ba6561;fill-opacity:1;fill-rule:evenodd;stroke:none;stroke-width:24.05897713;stroke-linecap:round;stroke-linejoin:round;stroke-miterlimit:4;stroke-dasharray:none;paint-order:stroke fill markers" transform="rotate(37.79)"/><path id="rect887" d="M160.487 22.15h12.029v12.029h-12.029z" style="opacity:1;vector-effect:none;fill:#ba6561;fill-opacity:1;fill-rule:evenodd;stroke:none;stroke-width:24.05897713;stroke-linecap:round;stroke-linejoin:round;stroke-miterlimit:4;stroke-dasharray:none;paint-order:stroke fill markers" transform="rotate(37.79)"/><path id="rect889" d="M104 128h12v12h-12z" style="opacity:1;vector-effect:none;fill:#ba6561;fill-opacity:1;fill-rule:evenodd;stroke:none;stroke-width:24;stroke-linecap:round;stroke-linejoin:round;stroke-miterlimit:4;stroke-dasharray:none;paint-order:stroke fill markers"/><path id="rect891" d="M92 140h12v12H92z" style="opacity:1;vector-effect:none;fill:#ba6561;fill-opacity:1;fill-rule:evenodd;stroke:none;stroke-width:24;stroke-linecap:round;stroke-linejoin:round;stroke-miterlimit:4;stroke-dasharray:none;paint-order:stroke fill markers"/><path id="rect893" d="M32 56v24h12V68h12V56H44Z" style="opacity:1;vector-effect:none;fill:#fff;fill-opacity:1;fill-rule:evenodd;stroke:none;stroke-width:24;stroke-linecap:round;stroke-linejoin:round;stroke-miterlimit:4;stroke-dasharray:none;paint-order:stroke fill markers"/><rect id="rect924" width="40.098" height="28.069" x="160.487" y="-46.017" ry="8.02" style="opacity:1;vector-effect:none;fill:#ff837d;fill-opacity:1;fill-rule:evenodd;stroke-width:1.00245738;paint-order:stroke fill markers" transform="rotate(37.79)"/><path id="path1101" d="M147.966 71.237s4.452-3.128 8.288-.559c3.983 2.668 2.746 8.746 2.746 8.746s3.805-3.58 7.983-.61c4.178 2.97 1.78 7.83 1.78 7.83s3.915-3.8 8.898-.152c4.983 3.647 1.475 9.762 1.475 9.762l-10.628-9.407s1.728-3.865-2.288-6.66c-4.015-2.796-7.525-.509-7.525-.509s.479-5.247-3.05-7.729c-3.553-2.497-7.679-.712-7.679-.712z" style="fill:#ba6561"/><path id="path951" d="M150.607 70.586c-1.497.07-2.496.442-2.648.5l-5.219 6.732a8.002 8.002 0 0 0 1.424 11.252l4.647 3.602 10.302-13.244-.05-.037s-.075-4.77-2.875-7.047c-1.88-1.528-3.965-1.834-5.58-1.758z" style="fill:#ffd6d4"/><path id="rect922" d="M160.487-29.978h40.098v12.029h-40.098z" style="opacity:1;vector-effect:none;fill:#fff;fill-opacity:1;fill-rule:evenodd;stroke-width:1.00245738;paint-order:stroke fill markers" transform="rotate(37.79)"/><path id="rect924-1" d="M170.25 86.375c-.847.03-1.408.135-1.408.135l-.08-.059-10.526 13.531 4.942 3.83a8.002 8.002 0 0 0 11.252-1.423l4.757-6.137-.062.037s1.415-5.263-3.523-8.629c-1.735-1.182-3.94-1.336-5.352-1.285z" style="opacity:1;vector-effect:none;fill:#ba6561;fill-opacity:1;fill-rule:evenodd;stroke-width:1.00245738;paint-order:stroke fill markers"/><path id="rect904" d="M160.487-21.958h40.098V34.18h-40.098z" style="opacity:1;vector-effect:none;fill:#f9de81;fill-opacity:1;fill-rule:evenodd;stroke:none;stroke-width:7.60811663;stroke-linecap:round;stroke-linejoin:round;stroke-miterlimit:4;stroke-dasharray:none;paint-order:stroke fill markers" transform="rotate(37.79)"/><path id="rect922-6" d="m165.621 90.486-7.385 9.496 11.28 8.745 7.37-9.506-11.265-8.735z" style="opacity:1;vector-effect:none;fill:#d8d8d8;fill-opacity:1;fill-rule:evenodd;stroke-width:1.00245738;paint-order:stroke fill markers"/><path id="path951-2" d="m160.7 96.816-34.468 44.313 11.34 8.793 34.4-44.365-11.273-8.74z" style="fill:#c39a54"/><path id="rect904-4" d="m140.283 80.986-34.398 44.366 10.922 8.468 34.466-44.314-10.99-8.52z" style="opacity:1;vector-effect:none;fill:#fdf5d9;fill-opacity:1;fill-rule:evenodd;stroke:none;stroke-width:7.60811663;stroke-linecap:round;stroke-linejoin:round;stroke-miterlimit:4;stroke-dasharray:none;paint-order:stroke fill markers"/><path id="path912" d="M108.154 124.752a4.01 4.01 0 0 0-3.818 3.521l-2.932 24.05h.002L104 160l8.568.977v.002l22.56-8.83c2.899-1.135 3.456-4.995.997-6.903l-25.352-19.656a4.01 4.01 0 0 0-2.619-.838z" style="color:#000;font-style:normal;font-variant:normal;font-weight:400;font-stretch:normal;font-size:medium;line-height:normal;font-family:sans-serif;font-variant-ligatures:normal;font-variant-position:normal;font-variant-caps:normal;font-variant-numeric:normal;font-variant-alternates:normal;font-feature-settings:normal;text-indent:0;text-align:start;text-decoration:none;text-decoration-line:none;text-decoration-style:solid;text-decoration-color:#000;letter-spacing:normal;word-spacing:normal;text-transform:none;writing-mode:lr-tb;direction:ltr;text-orientation:mixed;dominant-baseline:auto;baseline-shift:baseline;text-anchor:start;white-space:normal;shape-padding:0;clip-rule:nonzero;display:inline;overflow:visible;visibility:visible;opacity:1;isolation:auto;mix-blend-mode:normal;color-interpolation:sRGB;color-interpolation-filters:linearRGB;solid-color:#000;solid-opacity:1;vector-effect:none;fill:#fcecdc;fill-opacity:1;fill-rule:nonzero;stroke:none;stroke-width:8.01965904;stroke-linecap:round;stroke-linejoin:round;stroke-miterlimit:4;stroke-dasharray:none;stroke-dashoffset:0;stroke-opacity:1;color-rendering:auto;image-rendering:auto;shape-rendering:auto;text-rendering:auto;enable-background:accumulate"/><rect id="rect914" width="16.039" height="16.039" x="160.487" y="26.16" ry="8.02" style="opacity:1;vector-effect:none;fill:#fcecdc;fill-opacity:1;fill-rule:evenodd;stroke-width:1.00245738;paint-order:stroke fill markers" transform="rotate(37.79)"/><rect id="rect916" width="16.039" height="16.039" x="184.546" y="26.16" ry="8.02" style="opacity:1;vector-effect:none;fill:#fcecdc;fill-opacity:1;fill-rule:evenodd;stroke-width:1.00245738;paint-order:stroke fill markers" transform="rotate(37.79)"/><rect id="rect918" width="16.039" height="16.039" x="172.517" y="26.16" ry="8.02" style="opacity:1;vector-effect:none;fill:#fcecdc;fill-opacity:1;fill-rule:evenodd;stroke-width:1.00245738;paint-order:stroke fill markers" transform="rotate(37.79)"/><path id="rect926" d="m101.405 152.322-.856 7.011c-.365 3.011 2.616 5.322 5.44 4.219l6.578-2.575z" style="opacity:1;vector-effect:none;fill:#4a4a4a;fill-opacity:1;fill-rule:evenodd;stroke-width:1.00245738;paint-order:stroke fill markers"/></svg>
